images/icon/fb_c.svg

<svg width="32" height="32" viewBox="0 0 32 32" fill="none" xmlns="http://www.w3.org/2000/svg">
<g clip-path="url(#clip0)">
<path d="M15.63 31.28C24.2622 31.28 31.26 24.2777 31.26 15.64C31.26 7.00227 24.2622 0 15.63 0C6.99779 0 0 7.00227 0 15.64C0 24.2777 6.99779 31.28 15.63 31.28Z" fill="#89663D"/>
<path fill-rule="evenodd" clip-rule="evenodd" d="M16.57 24.89H13.1V16.71H11.37V13.89H13.1V12.2C13.1 9.9 14.1 8.53 16.86 8.53H19.17V11.35H17.73C16.64 11.35 16.57 11.75 16.57 12.48V13.89H19.19L18.88 16.71H16.57V24.89Z" fill="black"/>
</g>
<defs>
<clipPath id="clip0">
<rect width="31.27" height="31.29" fill="white"/>
</clipPath>
</defs>
</svg>

<svg xmlns="http://www.w3.org/2000/svg" viewBox="0 0 31.27 31.29"><defs><style>.cls-1{fill:none;}.cls-2{fill:#906c4d;}.cls-3{fill-rule:evenodd;}</style></defs><g id="Layer_2" data-name="Layer 2"><g id="Layer_1-2" data-name="Layer 1"><path class="cls-1" d="M0,0H31.27V31.29H0Z"/><ellipse class="cls-2" cx="15.63" cy="15.64" rx="15.63" ry="15.64"/><path class="cls-3" d="M16.57,24.89H13.1V16.71H11.37V13.89H13.1V12.2c0-2.3,1-3.67,3.76-3.67h2.31v2.82H17.73c-1.09,0-1.16.4-1.16,1.13v1.41h2.62l-.31,2.82H16.57v8.18Z"/></g></g></svg>
